icon-themes/breeze_svg/cmd/sc_spacepara1.svg

<svg viewBox="0 0 16 16" xmlns="http://www.w3.org/2000/svg"><path d="m2 4v1h7v-1zm0 2v1h6v-1zm0 2v1h8v-1zm0 2v1h3.5625v-1z" fill="#4d4d4d"/><path d="m12.5 2-1.5 2h1v2 4 2h-1l1.5 2 1.5-2h-1v-2-4-2h1z" fill="#1d99f3"/></svg>

<svg xmlns="http://www.w3.org/2000/svg" viewBox="0 0 16 16">
 <path 
     style="fill:#4d4d4d" 
     d="M 2 4 L 2 5 L 9 5 L 9 4 L 2 4 z M 2 6 L 2 7 L 8 7 L 8 6 L 2 6 z M 2 8 L 2 9 L 10 9 L 10 8 L 2 8 z M 2 10 L 2 11 L 5.5625 11 L 5.5625 10 L 2 10 z "
     />
 <path 
     style="fill:#1d99f3" 
     d="M 12.5 2 L 11 4 L 12 4 L 12 6 L 12 10 L 12 12 L 11 12 L 12.5 14 L 14 12 L 13 12 L 13 10 L 13 6 L 13 4 L 14 4 L 12.5 2 z "
     />
 </svg>
